images/astro.svg

<svg viewBox="0 0 2712 894" fill="none" xmlns="http://www.w3.org/2000/svg"><path fill-rule="evenodd" clip-rule="evenodd" d="M445.433 22.983c7.289 9.05 11.006 21.26 18.44 45.682l162.408 533.511a675.855 675.855 0 00-194.166-65.737l-105.744-357.34a13.763 13.763 0 00-26.408.041L195.5 536.259A675.821 675.821 0 00.46 602.095L163.663 68.541c7.457-24.38 11.186-36.57 18.476-45.602A59.994 59.994 0 01206.454 4.95C217.224.622 229.971.622 255.466.622h116.568c25.528 0 38.292 0 49.072 4.338a60.004 60.004 0 0124.327 18.023zM464.867 627.566c-26.773 22.893-80.212 38.507-141.766 38.507-75.55 0-138.872-23.52-155.675-55.152-6.007 18.129-7.354 38.877-7.354 52.131 0 0-3.958 65.082 41.309 110.349 0-23.505 19.054-42.559 42.558-42.559 40.287 0 40.242 35.148 40.205 63.663l-.002 2.546c0 43.282 26.453 80.385 64.073 96.024-5.619-11.557-8.771-24.536-8.771-38.25 0-41.281 24.235-56.651 52.401-74.514 22.41-14.213 47.31-30.004 64.47-61.682 8.953-16.529 14.038-35.459 14.038-55.577 0-12.372-1.923-24.295-5.486-35.486z" fill="#000"/><path d="M999.148 593.833c67.932 0 118.882-24.168 139.782-65.317 0 19.595 1.31 39.844 4.57 55.52h111.7c-5.23-22.863-7.84-54.216-7.84-95.365v-100.59c0-95.364-56.18-140.433-180.93-140.433-109.085 0-182.241 45.069-190.733 118.879h116.266c3.919-32.006 30.697-49.642 74.467-49.642 43.1 0 67.27 17.636 67.27 54.215v9.796l-118.22 10.451c-57.482 5.88-90.141 15.676-113.003 31.353-24.167 16.328-36.578 41.151-36.578 71.849 0 61.399 50.948 99.284 133.249 99.284zm43.112-67.931c-37.89 0-60.748-15.022-60.748-39.19 0-24.82 18.938-37.885 66.628-43.763l87.52-9.144V453.4c0 43.763-37.88 72.502-93.4 72.502zM1490.77 593.833c113.66 0 171.79-42.456 171.79-111.04 0-56.827-32.66-88.18-111.69-98.631l-98.63-11.103c-28.09-3.921-39.85-11.106-39.85-26.782 0-18.941 18.94-27.433 62.05-27.433 59.44 0 100.59 13.717 133.91 40.498l52.9-52.908c-36.57-37.884-99.93-58.786-178.31-58.786-110.39 0-171.79 39.19-171.79 105.161 0 57.48 37.88 89.486 116.26 99.936l88.84 10.451c35.27 4.573 45.72 11.106 45.72 28.087 0 19.597-19.6 30.048-65.32 30.048-67.93 0-113.65-18.29-144.35-52.255l-60.09 49.641c39.84 49.643 107.77 75.116 198.56 75.116zM1754.78 331.255v137.821c0 80.994 45.72 122.145 143.7 122.145 30.05 0 53.56-3.266 75.77-9.798v-84.915c-11.76 2.614-26.13 5.226-45.07 5.226-41.15 0-61.4-18.288-61.4-56.826V331.255h107.12v-73.81h-107.12V137.914l-113 41.803v77.728h-73.16v73.81h73.16zM2137.13 257.445h-103.2v326.591h113V461.892c0-35.274 7.84-67.279 29.4-87.528 16.98-15.677 41.15-24.166 75.11-24.166 12.41 0 22.21 1.304 33.31 2.611V250.26c-7.18-1.306-12.41-1.306-21.55-1.306-64.67 0-108.43 37.231-126.07 97.978v-89.487zM2508.05 593.833c119.54 0 203.8-63.358 203.8-173.745 0-109.735-84.26-172.44-203.8-172.44-120.18 0-204.44 62.705-204.44 172.44 0 110.387 84.26 173.745 204.44 173.745zm0-75.116c-54.86 0-89.48-35.271-89.48-98.629 0-63.36 34.62-97.325 89.48-97.325 54.22 0 88.84 33.965 88.84 97.325 0 63.358-34.62 98.629-88.84 98.629z" fill="#000"/></svg>

<svg viewBox="0 0 2712 894" fill="none" xmlns="http://www.w3.org/2000/svg">
<path fill-rule="evenodd" clip-rule="evenodd" d="M445.433 22.9832C452.722 32.0324 456.439 44.2432 463.873 68.6647L626.281 602.176C566.234 571.026 500.957 548.56 432.115 536.439L326.371 179.099C324.641 173.252 319.27 169.241 313.173 169.241C307.06 169.241 301.68 173.273 299.963 179.14L195.5 536.259C126.338 548.325 60.7632 570.832 0.459473 602.095L163.664 68.5412C171.121 44.1617 174.85 31.9718 182.14 22.9393C188.575 14.9651 196.946 8.77213 206.454 4.95048C217.224 0.621582 229.971 0.621582 255.466 0.621582H372.034C397.562 0.621582 410.326 0.621582 421.106 4.95951C430.622 8.78908 438.998 14.9946 445.433 22.9832Z" fill="#000000"/>
<path fill-rule="evenodd" clip-rule="evenodd" d="M464.867 627.566C438.094 650.459 384.655 666.073 323.101 666.073C247.551 666.073 184.229 642.553 167.426 610.921C161.419 629.05 160.072 649.798 160.072 663.052C160.072 663.052 156.114 728.134 201.381 773.401C201.381 749.896 220.435 730.842 243.939 730.842C284.226 730.842 284.181 765.99 284.144 794.505C284.143 795.36 284.142 796.209 284.142 797.051C284.142 840.333 310.595 877.436 348.215 893.075C342.596 881.518 339.444 868.539 339.444 854.825C339.444 813.544 363.679 798.174 391.845 780.311C414.255 766.098 439.155 750.307 456.315 718.629C465.268 702.1 470.353 683.17 470.353 663.052C470.353 650.68 468.43 638.757 464.867 627.566Z" fill="#000000"/>
<path d="M999.148 593.833C1067.08 593.833 1118.03 569.665 1138.93 528.516C1138.93 548.111 1140.24 568.36 1143.5 584.036H1255.2C1249.97 561.173 1247.36 529.82 1247.36 488.671V388.081C1247.36 292.717 1191.18 247.648 1066.43 247.648C957.345 247.648 884.189 292.717 875.697 366.527H991.963C995.882 334.521 1022.66 316.885 1066.43 316.885C1109.53 316.885 1133.7 334.521 1133.7 371.1V380.896L1015.48 391.347C957.998 397.227 925.339 407.023 902.477 422.7C878.31 439.028 865.899 463.851 865.899 494.549C865.899 555.948 916.847 593.833 999.148 593.833ZM1042.26 525.902C1004.37 525.902 981.512 510.88 981.512 486.712C981.512 461.892 1000.45 448.827 1048.14 442.949L1135.66 433.805V453.4C1135.66 497.163 1097.78 525.902 1042.26 525.902Z" fill="#000000"/>
<path d="M1490.77 593.833C1604.43 593.833 1662.56 551.377 1662.56 482.793C1662.56 425.966 1629.9 394.613 1550.87 384.162L1452.24 373.059C1424.15 369.138 1412.39 361.953 1412.39 346.277C1412.39 327.336 1431.33 318.844 1474.44 318.844C1533.88 318.844 1575.03 332.561 1608.35 359.342L1661.25 306.434C1624.68 268.55 1561.32 247.648 1482.94 247.648C1372.55 247.648 1311.15 286.838 1311.15 352.809C1311.15 410.289 1349.03 442.295 1427.41 452.745L1516.25 463.196C1551.52 467.769 1561.97 474.302 1561.97 491.283C1561.97 510.88 1542.37 521.331 1496.65 521.331C1428.72 521.331 1383 503.041 1352.3 469.076L1292.21 518.717C1332.05 568.36 1399.98 593.833 1490.77 593.833Z" fill="#000000"/>
<path d="M1754.78 331.255V469.076C1754.78 550.07 1800.5 591.221 1898.48 591.221C1928.53 591.221 1952.04 587.955 1974.25 581.423V496.508C1962.49 499.122 1948.12 501.734 1929.18 501.734C1888.03 501.734 1867.78 483.446 1867.78 444.908V331.255H1974.9V257.445H1867.78V137.914L1754.78 179.717V257.445H1681.62V331.255H1754.78Z" fill="#000000"/>
<path d="M2137.13 257.445H2033.93V584.036H2146.93V461.892C2146.93 426.618 2154.77 394.613 2176.33 374.364C2193.31 358.687 2217.48 350.198 2251.44 350.198C2263.85 350.198 2273.65 351.502 2284.75 352.809V250.26C2277.57 248.954 2272.34 248.954 2263.2 248.954C2198.53 248.954 2154.77 286.185 2137.13 346.932V257.445Z" fill="#000000"/>
<path d="M2508.05 593.833C2627.59 593.833 2711.85 530.475 2711.85 420.088C2711.85 310.353 2627.59 247.648 2508.05 247.648C2387.87 247.648 2303.61 310.353 2303.61 420.088C2303.61 530.475 2387.87 593.833 2508.05 593.833ZM2508.05 518.717C2453.19 518.717 2418.57 483.446 2418.57 420.088C2418.57 356.728 2453.19 322.763 2508.05 322.763C2562.27 322.763 2596.89 356.728 2596.89 420.088C2596.89 483.446 2562.27 518.717 2508.05 518.717Z" fill="#000000"/>
</svg>
